shader_type canvas_item;

uniform vec4 color: source_color;

void fragment() {
	vec4 original = texture(TEXTURE, UV);
	if (original.a > 0.0) {
		COLOR = color;
	}
}

//void light() {
//	// Called for every pixel for every light affecting the CanvasItem.
//	// Uncomment to replace the default light processing function with this one.
//}
